X:57
T: Wilhelmus van Nassouwen
N: A0410
O: Europa, Mitteleuropa, Deutschland
N: (=A0409C)M. Franck Reuterliedlein 1603 No. 24.
R: Romanze, Ballade, Lied, Kriegslied
M: 4/4
L: 1/16
K: F
C4 | F4F4G4G4 | A2G2A2G2F4c2B2 | A4G2F2A4G4 | F8z4
C4 | F4F4G4G4 | A2G2A2G2F4c2B2 | A4G2F2A4G4 | F8z4
F4 | c4c4B4B4 | A4G4A4F4 | B2A2A2GFG4A4 | G8z4
A4 | F4A4G4F4 | A4G4F4F4
D2E2F2D2E2F2G2E2 | F2G2A2F2G2A2B2G2
A4F4F4E4 | F8z4

